X: 25540
T: Marie O'Keeffe's
R: reel
M: 4/4
K: Dmajor
B2|:AF~F2 DEFA|dABA FABA|df~f2bafa|afef eB~B2|
AF~F2 DEFA|dABA FABA|df~f2bafa|1 afefd2dB:|2 afefd2dA||
|:d2dA FABA|BdAF EFED|B,EGB degb|afef eB~B2|
AF~F2 DEFA|dABA FABA|df~f2bafa|1 afefd2dA:|2 afefd2||

